images/50368386.svg

<?xml version="1.0" encoding="UTF-8"?>
<svg xmlns="http://www.w3.org/2000/svg" xmlns:xlink="http://www.w3.org/1999/xlink" width="300pt" height="300pt" viewBox="0 0 300 300" version="1.1">
<defs>
<g>
<symbol overflow="visible" id="glyph0-0">
<path style="stroke:none;" d="M 0.59375 2.125 L 0.59375 -8.46875 L 6.59375 -8.46875 L 6.59375 2.125 Z M 1.265625 1.453125 L 5.9375 1.453125 L 5.9375 -7.78125 L 1.265625 -7.78125 Z M 1.265625 1.453125 "/>
</symbol>
<symbol overflow="visible" id="glyph0-1">
<path style="stroke:none;" d="M 4.734375 -7.953125 C 3.867188 -7.953125 3.179688 -7.628906 2.671875 -6.984375 C 2.171875 -6.347656 1.921875 -5.472656 1.921875 -4.359375 C 1.921875 -3.265625 2.171875 -2.394531 2.671875 -1.75 C 3.179688 -1.113281 3.867188 -0.796875 4.734375 -0.796875 C 5.585938 -0.796875 6.265625 -1.113281 6.765625 -1.75 C 7.273438 -2.394531 7.53125 -3.265625 7.53125 -4.359375 C 7.53125 -5.472656 7.273438 -6.347656 6.765625 -6.984375 C 6.265625 -7.628906 5.585938 -7.953125 4.734375 -7.953125 Z M 4.734375 -8.90625 C 5.953125 -8.90625 6.925781 -8.492188 7.65625 -7.671875 C 8.394531 -6.847656 8.765625 -5.742188 8.765625 -4.359375 C 8.765625 -2.984375 8.394531 -1.882812 7.65625 -1.0625 C 6.925781 -0.238281 5.953125 0.171875 4.734375 0.171875 C 3.503906 0.171875 2.519531 -0.238281 1.78125 -1.0625 C 1.039062 -1.882812 0.671875 -2.984375 0.671875 -4.359375 C 0.671875 -5.742188 1.039062 -6.847656 1.78125 -7.671875 C 2.519531 -8.492188 3.503906 -8.90625 4.734375 -8.90625 Z M 4.734375 -8.90625 "/>
</symbol>
<symbol overflow="visible" id="glyph0-2">
<path style="stroke:none;" d="M 1.171875 -8.75 L 2.359375 -8.75 L 2.359375 -5.15625 L 6.65625 -5.15625 L 6.65625 -8.75 L 7.84375 -8.75 L 7.84375 0 L 6.65625 0 L 6.65625 -4.171875 L 2.359375 -4.171875 L 2.359375 0 L 1.171875 0 Z M 1.171875 -8.75 "/>
</symbol>
</g>
</defs>
<g id="surface13417">
<rect x="0" y="0" width="300" height="300" style="fill:rgb(100%,100%,100%);fill-opacity:1;stroke:none;"/>
<path style="fill:none;stroke-width:1.2;stroke-linecap:butt;stroke-linejoin:miter;stroke:rgb(100%,0%,0%);stroke-opacity:1;stroke-miterlimit:10;" d="M 128.527344 167.726562 L 113.597656 166.660156 "/>
<path style="fill:none;stroke-width:1.2;stroke-linecap:butt;stroke-linejoin:miter;stroke:rgb(0%,0%,0%);stroke-opacity:1;stroke-miterlimit:10;" d="M 113.597656 166.660156 L 98.664062 165.59375 "/>
<path style="fill:none;stroke-width:1.2;stroke-linecap:butt;stroke-linejoin:miter;stroke:rgb(0%,0%,0%);stroke-opacity:1;stroke-miterlimit:10;" d="M 145.304688 142.929688 L 136.914062 155.328125 "/>
<path style="fill:none;stroke-width:1.2;stroke-linecap:butt;stroke-linejoin:miter;stroke:rgb(100%,0%,0%);stroke-opacity:1;stroke-miterlimit:10;" d="M 136.914062 155.328125 L 128.527344 167.726562 "/>
<path style=" stroke:none;fill-rule:nonzero;fill:rgb(100%,100%,100%);fill-opacity:1;" d="M 123.527344 160.726562 L 133.527344 160.726562 L 133.527344 174.726562 L 123.527344 174.726562 Z M 123.527344 160.726562 "/>
<g style="fill:rgb(100%,0%,0%);fill-opacity:1;">
  <use xlink:href="#glyph0-1" x="123.527344" y="171.865234"/>
</g>
<path style="fill:none;stroke-width:1.2;stroke-linecap:butt;stroke-linejoin:miter;stroke:rgb(0%,0%,0%);stroke-opacity:1;stroke-miterlimit:10;" d="M 98.664062 165.59375 L 85.578125 138.667969 "/>
<path style="fill:none;stroke-width:1.2;stroke-linecap:butt;stroke-linejoin:miter;stroke:rgb(0%,0%,0%);stroke-opacity:1;stroke-miterlimit:10;" d="M 91.019531 165.980469 L 80.554688 144.441406 "/>
<path style="fill:none;stroke-width:1.2;stroke-linecap:butt;stroke-linejoin:miter;stroke:rgb(0%,0%,0%);stroke-opacity:1;stroke-miterlimit:10;" d="M 81.886719 190.390625 L 98.664062 165.59375 "/>
<path style="fill:none;stroke-width:1.2;stroke-linecap:butt;stroke-linejoin:miter;stroke:rgb(0%,0%,0%);stroke-opacity:1;stroke-miterlimit:10;" d="M 85.578125 138.667969 L 102.355469 113.871094 "/>
<path style="fill:none;stroke-width:1.2;stroke-linecap:butt;stroke-linejoin:miter;stroke:rgb(0%,0%,0%);stroke-opacity:1;stroke-miterlimit:10;" d="M 85.578125 138.667969 L 55.71875 136.535156 "/>
<path style="fill:none;stroke-width:1.2;stroke-linecap:butt;stroke-linejoin:miter;stroke:rgb(0%,0%,0%);stroke-opacity:1;stroke-miterlimit:10;" d="M 105.523438 112.332031 L 98.980469 98.871094 "/>
<path style="fill:none;stroke-width:1.2;stroke-linecap:butt;stroke-linejoin:miter;stroke:rgb(100%,0%,0%);stroke-opacity:1;stroke-miterlimit:10;" d="M 98.980469 98.871094 L 92.441406 85.40625 "/>
<path style="fill:none;stroke-width:1.2;stroke-linecap:butt;stroke-linejoin:miter;stroke:rgb(0%,0%,0%);stroke-opacity:1;stroke-miterlimit:10;" d="M 99.1875 115.414062 L 92.644531 101.949219 "/>
<path style="fill:none;stroke-width:1.2;stroke-linecap:butt;stroke-linejoin:miter;stroke:rgb(100%,0%,0%);stroke-opacity:1;stroke-miterlimit:10;" d="M 92.644531 101.949219 L 86.105469 88.484375 "/>
<path style="fill:none;stroke-width:1.2;stroke-linecap:butt;stroke-linejoin:miter;stroke:rgb(0%,0%,0%);stroke-opacity:1;stroke-miterlimit:10;" d="M 102.355469 113.871094 L 132.21875 116.003906 "/>
<path style=" stroke:none;fill-rule:nonzero;fill:rgb(100%,100%,100%);fill-opacity:1;" d="M 79.273438 79.945312 L 89.273438 79.945312 L 89.273438 93.945312 L 79.273438 93.945312 Z M 79.273438 79.945312 "/>
<g style="fill:rgb(100%,0%,0%);fill-opacity:1;">
  <use xlink:href="#glyph0-1" x="79.273438" y="91.083984"/>
</g>
<path style="fill:none;stroke-width:1.2;stroke-linecap:butt;stroke-linejoin:miter;stroke:rgb(0%,0%,0%);stroke-opacity:1;stroke-miterlimit:10;" d="M 132.21875 116.003906 L 145.304688 142.929688 "/>
<path style="fill:none;stroke-width:1.2;stroke-linecap:butt;stroke-linejoin:miter;stroke:rgb(0%,0%,0%);stroke-opacity:1;stroke-miterlimit:10;" d="M 127.191406 121.777344 L 137.660156 143.316406 "/>
<path style="fill:none;stroke-width:1.2;stroke-linecap:butt;stroke-linejoin:miter;stroke:rgb(0%,0%,0%);stroke-opacity:1;stroke-miterlimit:10;" d="M 145.304688 142.929688 L 175.164062 145.0625 "/>
<path style="fill:none;stroke-width:1.2;stroke-linecap:butt;stroke-linejoin:miter;stroke:rgb(0%,0%,0%);stroke-opacity:1;stroke-miterlimit:10;" d="M 175.164062 145.0625 L 188.25 171.988281 "/>
<path style="fill:none;stroke-width:1.2;stroke-linecap:butt;stroke-linejoin:miter;stroke:rgb(0%,0%,0%);stroke-opacity:1;stroke-miterlimit:10;" d="M 182.808594 144.675781 L 193.277344 166.21875 "/>
<path style="fill:none;stroke-width:1.2;stroke-linecap:butt;stroke-linejoin:miter;stroke:rgb(0%,0%,0%);stroke-opacity:1;stroke-miterlimit:10;" d="M 191.941406 120.265625 L 175.164062 145.0625 "/>
<path style="fill:none;stroke-width:1.2;stroke-linecap:butt;stroke-linejoin:miter;stroke:rgb(0%,0%,0%);stroke-opacity:1;stroke-miterlimit:10;" d="M 188.25 171.988281 L 218.113281 174.121094 "/>
<path style="fill:none;stroke-width:1.2;stroke-linecap:butt;stroke-linejoin:miter;stroke:rgb(0%,0%,0%);stroke-opacity:1;stroke-miterlimit:10;" d="M 218.113281 174.121094 L 224.652344 187.582031 "/>
<path style="fill:none;stroke-width:1.2;stroke-linecap:butt;stroke-linejoin:miter;stroke:rgb(100%,0%,0%);stroke-opacity:1;stroke-miterlimit:10;" d="M 224.652344 187.582031 L 231.195312 201.046875 "/>
<path style="fill:none;stroke-width:1.2;stroke-linecap:butt;stroke-linejoin:miter;stroke:rgb(0%,0%,0%);stroke-opacity:1;stroke-miterlimit:10;" d="M 218.113281 174.121094 L 234.886719 149.324219 "/>
<path style="fill:none;stroke-width:1.2;stroke-linecap:butt;stroke-linejoin:miter;stroke:rgb(0%,0%,0%);stroke-opacity:1;stroke-miterlimit:10;" d="M 213.957031 167.695312 L 227.375 147.855469 "/>
<path style=" stroke:none;fill-rule:nonzero;fill:rgb(100%,100%,100%);fill-opacity:1;" d="M 222.195312 194.046875 L 241.195312 194.046875 L 241.195312 208.046875 L 222.195312 208.046875 Z M 222.195312 194.046875 "/>
<g style="fill:rgb(100%,0%,0%);fill-opacity:1;">
  <use xlink:href="#glyph0-1" x="222.195312" y="205.185547"/>
  <use xlink:href="#glyph0-2" x="231.640625" y="205.185547"/>
</g>
<path style="fill:none;stroke-width:1.2;stroke-linecap:butt;stroke-linejoin:miter;stroke:rgb(0%,0%,0%);stroke-opacity:1;stroke-miterlimit:10;" d="M 234.886719 149.324219 L 249.820312 150.390625 "/>
<path style="fill:none;stroke-width:1.2;stroke-linecap:butt;stroke-linejoin:miter;stroke:rgb(100%,0%,0%);stroke-opacity:1;stroke-miterlimit:10;" d="M 249.820312 150.390625 L 264.75 151.457031 "/>
<path style="fill:none;stroke-width:1.2;stroke-linecap:butt;stroke-linejoin:miter;stroke:rgb(0%,0%,0%);stroke-opacity:1;stroke-miterlimit:10;" d="M 234.886719 149.324219 L 221.804688 122.398438 "/>
<path style=" stroke:none;fill-rule:nonzero;fill:rgb(100%,100%,100%);fill-opacity:1;" d="M 255.75 144.457031 L 274.75 144.457031 L 274.75 158.457031 L 255.75 158.457031 Z M 255.75 144.457031 "/>
<g style="fill:rgb(100%,0%,0%);fill-opacity:1;">
  <use xlink:href="#glyph0-1" x="255.75" y="155.595703"/>
  <use xlink:href="#glyph0-2" x="265.195312" y="155.595703"/>
</g>
<path style="fill:none;stroke-width:1.2;stroke-linecap:butt;stroke-linejoin:miter;stroke:rgb(0%,0%,0%);stroke-opacity:1;stroke-miterlimit:10;" d="M 221.804688 122.398438 L 191.941406 120.265625 "/>
<path style="fill:none;stroke-width:1.2;stroke-linecap:butt;stroke-linejoin:miter;stroke:rgb(0%,0%,0%);stroke-opacity:1;stroke-miterlimit:10;" d="M 218.316406 129.210938 L 194.425781 127.507812 "/>
<path style="fill:none;stroke-width:1.2;stroke-linecap:butt;stroke-linejoin:miter;stroke:rgb(0%,0%,0%);stroke-opacity:1;stroke-miterlimit:10;" d="M 55.71875 136.535156 L 49.175781 123.074219 "/>
<path style="fill:none;stroke-width:1.2;stroke-linecap:butt;stroke-linejoin:miter;stroke:rgb(100%,0%,0%);stroke-opacity:1;stroke-miterlimit:10;" d="M 49.175781 123.074219 L 42.632812 109.609375 "/>
<path style="fill:none;stroke-width:1.2;stroke-linecap:butt;stroke-linejoin:miter;stroke:rgb(0%,0%,0%);stroke-opacity:1;stroke-miterlimit:10;" d="M 55.71875 136.535156 L 38.941406 161.332031 "/>
<path style="fill:none;stroke-width:1.2;stroke-linecap:butt;stroke-linejoin:miter;stroke:rgb(0%,0%,0%);stroke-opacity:1;stroke-miterlimit:10;" d="M 59.875 142.964844 L 46.453125 162.800781 "/>
<path style=" stroke:none;fill-rule:nonzero;fill:rgb(100%,100%,100%);fill-opacity:1;" d="M 23.632812 102.609375 L 42.632812 102.609375 L 42.632812 116.609375 L 23.632812 116.609375 Z M 23.632812 102.609375 "/>
<g style="fill:rgb(100%,0%,0%);fill-opacity:1;">
  <use xlink:href="#glyph0-2" x="23.632812" y="113.748047"/>
  <use xlink:href="#glyph0-1" x="32.65625" y="113.748047"/>
</g>
<path style="fill:none;stroke-width:1.2;stroke-linecap:butt;stroke-linejoin:miter;stroke:rgb(0%,0%,0%);stroke-opacity:1;stroke-miterlimit:10;" d="M 38.941406 161.332031 L 52.027344 188.257812 "/>
<path style="fill:none;stroke-width:1.2;stroke-linecap:butt;stroke-linejoin:miter;stroke:rgb(0%,0%,0%);stroke-opacity:1;stroke-miterlimit:10;" d="M 52.027344 188.257812 L 43.636719 200.65625 "/>
<path style="fill:none;stroke-width:1.2;stroke-linecap:butt;stroke-linejoin:miter;stroke:rgb(100%,0%,0%);stroke-opacity:1;stroke-miterlimit:10;" d="M 43.636719 200.65625 L 35.25 213.054688 "/>
<path style="fill:none;stroke-width:1.2;stroke-linecap:butt;stroke-linejoin:miter;stroke:rgb(0%,0%,0%);stroke-opacity:1;stroke-miterlimit:10;" d="M 52.027344 188.257812 L 81.886719 190.390625 "/>
<path style="fill:none;stroke-width:1.2;stroke-linecap:butt;stroke-linejoin:miter;stroke:rgb(0%,0%,0%);stroke-opacity:1;stroke-miterlimit:10;" d="M 55.515625 181.445312 L 79.402344 183.152344 "/>
<path style=" stroke:none;fill-rule:nonzero;fill:rgb(100%,100%,100%);fill-opacity:1;" d="M 16.25 206.054688 L 35.25 206.054688 L 35.25 220.054688 L 16.25 220.054688 Z M 16.25 206.054688 "/>
<g style="fill:rgb(100%,0%,0%);fill-opacity:1;">
  <use xlink:href="#glyph0-2" x="16.25" y="217.193359"/>
  <use xlink:href="#glyph0-1" x="25.273438" y="217.193359"/>
</g>
</g>
</svg>

<svg xmlns="http://www.w3.org/2000/svg" xmlns:xlink="http://www.w3.org/1999/xlink" width="300pt" height="300pt" viewBox="0 0 300 300"><defs><symbol overflow="visible"><path d="M.594 2.125V-8.47h6V2.126zm.672-.672h4.671V-7.78h-4.67zm0 0"/></symbol><symbol overflow="visible" id="a"><path d="M4.734-7.953c-.867 0-1.554.324-2.062.97-.5.635-.75 1.51-.75 2.624 0 1.094.25 1.965.75 2.61.508.637 1.195.953 2.062.953.852 0 1.532-.316 2.032-.953.507-.645.765-1.516.765-2.61 0-1.113-.257-1.988-.764-2.624-.5-.645-1.18-.97-2.032-.97zm0-.953c1.22 0 2.192.414 2.922 1.234.74.824 1.11 1.93 1.11 3.313 0 1.376-.37 2.477-1.11 3.298C6.926-.24 5.953.17 4.734.17c-1.23 0-2.214-.41-2.953-1.234C1.04-1.882.673-2.984.673-4.36c0-1.382.367-2.488 1.11-3.312.738-.82 1.722-1.234 2.952-1.234zm0 0"/></symbol><symbol overflow="visible" id="b"><path d="M1.172-8.75H2.36v3.594h4.296V-8.75h1.188V0H6.656v-4.172H2.36V0H1.17zm0 0"/></symbol></defs><g><path fill="#fff" d="M0 0h300v300H0z"/><path d="M128.527 167.727l-14.93-1.067" stroke-width="1.2" stroke="#f00" stroke-miterlimit="10" fill="none"/><path d="M113.598 166.66l-14.934-1.066M145.305 142.93l-8.39 12.398" stroke-width="1.2" stroke="#000" stroke-miterlimit="10" fill="none"/><path d="M136.914 155.328l-8.387 12.4" stroke-width="1.2" stroke="#f00" stroke-miterlimit="10" fill="none"/><path d="M123.527 160.727h10v14h-10zm0 0" fill="#fff"/><use xlink:href="#a" x="123.527" y="171.865" fill="#f00"/><path d="M98.664 165.594l-13.086-26.926M91.02 165.98l-10.465-21.54M81.887 190.39l16.777-24.796M85.578 138.668l16.777-24.797M85.578 138.668l-29.86-2.133M105.523 112.332l-6.543-13.46" stroke-width="1.2" stroke="#000" stroke-miterlimit="10" fill="none"/><path d="M98.98 98.87l-6.54-13.464" stroke-width="1.2" stroke="#f00" stroke-miterlimit="10" fill="none"/><path d="M99.188 115.414l-6.543-13.465" stroke-width="1.2" stroke="#000" stroke-miterlimit="10" fill="none"/><path d="M92.645 101.95l-6.54-13.466" stroke-width="1.2" stroke="#f00" stroke-miterlimit="10" fill="none"/><path d="M102.355 113.87l29.864 2.134" stroke-width="1.2" stroke="#000" stroke-miterlimit="10" fill="none"/><path d="M79.273 79.945h10v14h-10zm0 0" fill="#fff"/><use xlink:href="#a" x="79.273" y="91.084" fill="#f00"/><path d="M132.22 116.004l13.085 26.926M127.19 121.777l10.47 21.54M145.305 142.93l29.86 2.132M175.164 145.063l13.086 26.925M182.81 144.676l10.467 21.543M191.94 120.266l-16.776 24.796M188.25 171.988l29.863 2.133M218.113 174.12l6.54 13.462" stroke-width="1.2" stroke="#000" stroke-miterlimit="10" fill="none"/><path d="M224.652 187.582l6.543 13.465" stroke-width="1.2" stroke="#f00" stroke-miterlimit="10" fill="none"/><path d="M218.113 174.12l16.774-24.796M213.957 167.695l13.418-19.84" stroke-width="1.2" stroke="#000" stroke-miterlimit="10" fill="none"/><path d="M222.195 194.047h19v14h-19zm0 0" fill="#fff"/><g fill="#f00"><use xlink:href="#a" x="222.195" y="205.186"/><use xlink:href="#b" x="231.641" y="205.186"/></g><path d="M234.887 149.324l14.933 1.067" stroke-width="1.2" stroke="#000" stroke-miterlimit="10" fill="none"/><path d="M249.82 150.39l14.93 1.067" stroke-width="1.2" stroke="#f00" stroke-miterlimit="10" fill="none"/><path d="M234.887 149.324l-13.082-26.926" stroke-width="1.2" stroke="#000" stroke-miterlimit="10" fill="none"/><path d="M255.75 144.457h19v14h-19zm0 0" fill="#fff"/><g fill="#f00"><use xlink:href="#a" x="255.75" y="155.596"/><use xlink:href="#b" x="265.195" y="155.596"/></g><path d="M221.805 122.398l-29.864-2.132M218.316 129.21l-23.89-1.702M55.72 136.535l-6.544-13.46" stroke-width="1.2" stroke="#000" stroke-miterlimit="10" fill="none"/><path d="M49.176 123.074l-6.543-13.465" stroke-width="1.2" stroke="#f00" stroke-miterlimit="10" fill="none"/><path d="M55.72 136.535l-16.78 24.797M59.875 142.965L46.453 162.8" stroke-width="1.2" stroke="#000" stroke-miterlimit="10" fill="none"/><path d="M23.633 102.61h19v14h-19zm0 0" fill="#fff"/><g fill="#f00"><use xlink:href="#b" x="23.633" y="113.748"/><use xlink:href="#a" x="32.656" y="113.748"/></g><path d="M38.94 161.332l13.087 26.926M52.027 188.258l-8.39 12.398" stroke-width="1.2" stroke="#000" stroke-miterlimit="10" fill="none"/><path d="M43.637 200.656l-8.387 12.4" stroke-width="1.2" stroke="#f00" stroke-miterlimit="10" fill="none"/><path d="M52.027 188.258l29.86 2.133M55.516 181.445l23.886 1.707" stroke-width="1.2" stroke="#000" stroke-miterlimit="10" fill="none"/><path d="M16.25 206.055h19v14h-19zm0 0" fill="#fff"/><g fill="#f00"><use xlink:href="#b" x="16.25" y="217.193"/><use xlink:href="#a" x="25.273" y="217.193"/></g></g></svg>
